X:205
T: Roland's Return
R: jig
S: "Ace and Deuce" (C.McCarthy, A.McCormack, E.O Donoghue)
Z: B.Black
M: 6/8
L: 1/8
K: F
CDF FAF|cAF AGF|G2A Bfd|cAF GFD|
CDF FAF|cAF AGF|G2A BAG|AFD DED|
CDF FAF|cAF AGF|G2A Bcd|fdc AGF|
DFF CFF|B,FF A,FF|DGA BAG|AFD DFA||
d2d fed|efe A=B^c|d2e fef|agf gec|
d2d fed|efe AG^F|G2A BAG|AFD DED|
d2d fed|efe A=B^c|d2e fef|aga def|
afd gec|fed cAF|G2A BAG|AFD D3||
